X: 170
T: la Bonne foi
B: 204 Favourite Country Dances
N: Published by Straight & Skillern, London ca.1775
F: http://imslp.org/wiki/204_Favourite_Country_Dances_(Various) p.87 #170
Z: 2014 John Chambers <jc:trillian.mit.edu>
M: 2/4
L: 1/8
K: A
% - - - - - - - - - - - - - - - - - - - - - - - - -
|:\
cBAG | A3B | cBcd | e/d/e/f/ e>d |\
cBAG | A3B | cfe^d | e4 :|
|:\
aeed | dccf | ecBA | B/A/B/c/ B>c |\
dbbd | caad | cB/A/ BA/G/ | A4 :|
% - - - - - - - - - - - - - - - - - - - - - - - - -
%%begintext align
%% Foot it all 6 hands round half way .|
%% The same back again .|. Lead down two
%% Cu up again :|. Right and Left :|:
%%endtext

%%sep 1 1 500
%%sep 1 1 500
